packages/katcn/src/icons/svg/download-solid.svg

<svg width="24" height="24" viewBox="0 0 24 24" fill="none" xmlns="http://www.w3.org/2000/svg">
<path d="M9.99216 18.0838C10.4941 18.6946 11.1969 19 12 19C12.8031 19 13.5059 18.6946 14.0078 18.0838L19.5294 11.3653C20.0314 10.7545 20.1318 9.83832 19.8306 9.12575C19.5294 8.41317 18.8267 7.90419 18.0235 7.90419H15.7145V4.34132C15.7145 3.01796 14.7106 2 13.4055 2H10.6949C9.3898 2 8.28549 3.01796 8.28549 4.34132V7.90419H5.97647C5.17333 8.00599 4.47059 8.41317 4.16941 9.12575C3.86824 9.83832 3.96863 10.7545 4.47059 11.3653L9.99216 18.0838Z" fill="black"/>
<path d="M20.9055 15.1C20.3085 15.1 19.9104 15.5 19.9104 16.1V18.6C19.9104 19.4 19.2139 20.1 18.4179 20.1H5.48259C4.68657 20 3.99005 19.3 3.99005 18.5V16C3.99005 15.4 3.59204 15 2.99502 15C2.39801 15 2 15.4 2 16V18.5C2 20.5 3.49254 22 5.48259 22H18.5174C20.408 22 22 20.5 22 18.5V16C21.9005 15.5 21.5025 15.1 20.9055 15.1Z" fill="black"/>
</svg>

<svg xmlns="http://www.w3.org/2000/svg" fill="none" viewBox="0 0 24 24"><path fill="#000" d="M9.992 18.084c.502.61 1.205.916 2.008.916s1.506-.305 2.008-.916l5.521-6.719c.502-.61.603-1.527.302-2.24-.302-.712-1.004-1.22-1.808-1.22h-2.309V4.34C15.715 3.018 14.712 2 13.406 2h-2.71c-1.305 0-2.41 1.018-2.41 2.341v3.563h-2.31c-.803.102-1.505.51-1.807 1.222-.3.712-.2 1.629.302 2.24z"/><path fill="#000" d="M20.906 15.1c-.598 0-.996.4-.996 1v2.5c0 .8-.696 1.5-1.492 1.5H5.483c-.796-.1-1.493-.8-1.493-1.6V16c0-.6-.398-1-.995-1S2 15.4 2 16v2.5c0 2 1.493 3.5 3.483 3.5h13.034A3.47 3.47 0 0 0 22 18.5V16c-.1-.5-.497-.9-1.094-.9"/></svg>
